Papirus/32x32/apps/half-life2.svg

<svg width="32" height="32" version="1.1" xmlns="http://www.w3.org/2000/svg">
 <circle cx="16" cy="17" r="14" style="opacity:.2"/>
 <circle cx="16" cy="16" r="14" style="fill:#f37b21"/>
 <path d="M 16,2 A 14,14 0 0 0 2,16 14,14 0 0 0 2.0352,16.5 14,14 0 0 1 16,3 14,14 0 0 1 29.98,16.279 14,14 0 0 0 30,16 14,14 0 0 0 16,2 Z" style="fill:#ffffff;opacity:.2"/>
 <path d="m16 6a11 11 0 0 0-11 11 11 11 0 0 0 11 11 11 11 0 0 0 11-11 11 11 0 0 0-11-11zm-4.012 3.9434h3.832l4.401 11.1896 1.933-0.629 0.645 2.166-4.172 1.205-2.807-7.113-4.115 6.482h-2.58l5.746-9.279-0.644-1.834h-2.239z" style="opacity:.2"/>
 <path d="m16 5a11 11 0 0 0-11 11 11 11 0 0 0 11 11 11 11 0 0 0 11-11 11 11 0 0 0-11-11zm-4.012 3.9434h3.832l4.401 11.1896 1.933-0.629 0.645 2.166-4.172 1.205-2.807-7.113-4.115 6.482h-2.58l5.746-9.279-0.644-1.834h-2.239v-2.1876z" style="fill:#fffff6"/>
 <circle cx="24" cy="23" r="8" style="fill:#42a1cd"/>
 <path d="M 31.979,23.424 A 8,8 0 0 1 24,31 8,8 0 0 1 16.021,23.576 8,8 0 0 0 16,24 a 8,8 0 0 0 8,8 8,8 0 0 0 8,-8 8,8 0 0 0 -0.02148,-0.57617 z" style="opacity:.3"/>
 <path d="m23.999984 20.000055s-0.479396-0.01-0.973592 0.240198c-0.494296 0.247198-1.026392 0.843093-1.026392 1.759786h0.999992c0-0.999992 0.999992-0.999992 0.999992-0.999992s0.999992 0 0.999992 0.999992c0 0.374997-0.127499 0.657195-0.362496 0.957493-0.235099 0.300298-0.582596 0.595795-0.957593 0.908292-0.374997 0.312498-0.777494 0.641995-1.104892 1.060492-0.327497 0.418397-0.574995 0.948693-0.574995 1.573688v0.499996h3.999969v-0.999992h-2.908778c0.061-0.157399 0.152199-0.305298 0.271398-0.457497 0.234998-0.300297 0.582495-0.595795 0.957493-0.908293 0.374997-0.312497 0.777493-0.641995 1.104991-1.060491 0.327397-0.418397 0.574896-0.948693 0.574896-1.573688 0-0.916693-0.532096-1.512588-1.026393-1.759786-0.494195-0.247098-0.973592-0.240198-0.973592-0.240198z" style="fill-rule:evenodd;fill:#ffffff"/>
</svg>

<svg xmlns="http://www.w3.org/2000/svg" width="32" height="32" version="1.1">
 <circle style="opacity:0.2" cx="16" cy="17" r="14"/>
 <circle style="fill:#f37b21" cx="16" cy="16" r="14"/>
 <path style="fill:#ffffff;opacity:0.2" d="M 16,2 A 14,14 0 0 0 2,16 14,14 0 0 0 2.0352,16.5 14,14 0 0 1 16,3 14,14 0 0 1 29.98,16.279 14,14 0 0 0 30,16 14,14 0 0 0 16,2 Z"/>
 <path style="opacity:0.2" d="m16 6a11 11 0 0 0-11 11 11 11 0 0 0 11 11 11 11 0 0 0 11-11 11 11 0 0 0-11-11zm-4.012 3.9434h3.832l4.401 11.1896 1.933-0.629 0.645 2.166-4.172 1.205-2.807-7.113-4.115 6.482h-2.58l5.746-9.279-0.644-1.834h-2.239z"/>
 <path style="fill:#fffff6" d="m16 5a11 11 0 0 0-11 11 11 11 0 0 0 11 11 11 11 0 0 0 11-11 11 11 0 0 0-11-11zm-4.012 3.9434h3.832l4.401 11.1896 1.933-0.629 0.645 2.166-4.172 1.205-2.807-7.113-4.115 6.482h-2.58l5.746-9.279-0.644-1.834h-2.239v-2.1876z"/>
 <circle style="opacity:0.2" cx="24" cy="24" r="8"/>
 <circle style="fill:#4253cd" cx="24" cy="23" r="8"/>
 <path style="fill:#ffffff" d="M 23.026,20.24 C 22.532,20.487 22,21.083 22,22 H 23 C 23,21 24,21 24,21 24,21 25,21 25,22 25,22.375 24.873,22.657 24.638,22.957 24.403,23.257 24.055,23.553 23.68,23.865 23.305,24.177 22.903,24.507 22.575,24.925 22.248,25.343 22,25.875 22,26.5 V 27 H 26 V 26 H 23.091 C 23.152,25.843 23.243,25.694 23.362,25.542 23.597,25.242 23.944,24.946 24.319,24.634 24.694,24.322 25.096,23.992 25.424,23.574 25.751,23.156 26,22.625 26,22 26,21.083 25.467,20.487 24.973,20.24 24.479,20 24,20 24,20 24,20 23.521,20 23.026,20.24 Z"/>
</svg>
